X: 16535
T: Hallowe'en Eve
R: reel
M: 4/4
K: Fmajor
ADFA dcdA|GCEG cGAc|ADFD dDFA|
dcAG FDEC|[K:D] DFFE DFAf|edfd edBd|
[1 DFFE DFEF|egfe fdBA:|2 DFEF DFAf|edfd EDFD||

